image/big-arrow.svg

<svg fill="none" height="12" viewBox="0 0 81 12" width="81" xmlns="http://www.w3.org/2000/svg"><path d="m0 5.52344c0 2.20914 1.79086 4 4 4s4-1.79086 4-4-1.79086-4-4-4-4 1.79086-4 4zm80.5303.53033c.2929-.2929.2929-.76777 0-1.06066l-4.7729-4.772973c-.2929-.2928938-.7678-.2928938-1.0607 0-.2929.292893-.2929.767767 0 1.060663l4.2426 4.24264-4.2426 4.24264c-.2929.29292-.2929.76772 0 1.06062s.7678.2929 1.0607 0zm-76.5303-.53033v.75h76v-.75-.75h-76z" fill="#ff5e5b"/></svg>

<svg width="81" height="12" viewBox="0 0 81 12" fill="none" xmlns="http://www.w3.org/2000/svg">
<path d="M0 5.52344C0 7.73258 1.79086 9.52344 4 9.52344C6.20914 9.52344 8 7.73258 8 5.52344C8 3.3143 6.20914 1.52344 4 1.52344C1.79086 1.52344 0 3.3143 0 5.52344ZM80.5303 6.05377C80.8232 5.76087 80.8232 5.286 80.5303 4.99311L75.7574 0.220137C75.4645 -0.0727568 74.9896 -0.0727568 74.6967 0.220137C74.4038 0.51303 74.4038 0.987904 74.6967 1.2808L78.9393 5.52344L74.6967 9.76608C74.4038 10.059 74.4038 10.5338 74.6967 10.8267C74.9896 11.1196 75.4645 11.1196 75.7574 10.8267L80.5303 6.05377ZM4 5.52344V6.27344H80V5.52344V4.77344H4V5.52344Z" fill="#FF5E5B"/>
</svg>
